;FLAVOR:Marlin
;TIME:9474
;Filament used: 7.3588m
;Layer height: 0.2
;MINX:31.2
;MINY:75.68
;MINZ:0.3
;MAXX:168.8
;MAXY:124.32
;MAXZ:24.9
;Generated with Cura_SteamEngine 4.2.1
M140 S70
M105
M190 S70
M104 S210
M105
M109 S210
M82 ;absolute extrusion mode
G21 ;metric values
G90 ;absolute positioning
M82 ;set extruder to absolute mode
M107 ;start with the fan off
G28 X0 Y0 ;move X/Y to min endstops
G28 Z0 ;move Z to min endstops
G1 Z15.0 F225 ;move the platform down 15mm
G92 E0 ;zero the extruded length
G1 F140 E30 ;extrude 3mm of feed stock
G1 X20 Y0 F140 E30
G92 E0 ;zero the extruded length again
G1 F225
M117 ;Printing...
M141 S28
G92 E0
G92 E0
G1 F1500 E-6.5
;LAYER_COUNT:124
;LAYER:0
M107 P1
G0 F3410.5 X34.683 Y76.216 Z0.3
;TYPE:SKIRT
G1 F1500 E0
G1 F1080 X35.317 Y75.967 E0.03398
G1 X35.976 Y75.794 E0.06797
G1 X36.65 Y75.7 E0.10193
G1 X37.117 Y75.681 E0.12524
G1 X100 Y75.681 E3.26249
G1 X162.883 Y75.68 E6.39973
G1 X163.563 Y75.72 E6.43372
G1 X164.233 Y75.839 E6.46767
G1 X164.885 Y76.036 E6.50165
G1 X165.509 Y76.308 E6.53561
G1 X166.097 Y76.652 E6.5696
G1 X166.641 Y77.062 E6.60358
G1 X167.132 Y77.533 E6.63753
G1 X167.566 Y78.058 E6.67151
G1 X167.935 Y78.63 E6.70547
G1 X168.234 Y79.242 E6.73945
G1 X168.459 Y79.884 E6.77339
G1 X168.608 Y80.549 E6.80739
G1 X168.683 Y81.462 E6.85309
G1 X168.8 Y118.384 E8.69515
G1 X168.762 Y119.063 E8.72908
G1 X168.645 Y119.734 E8.76306
G1 X168.45 Y120.387 E8.79706
G1 X168.18 Y121.012 E8.83103
G1 X167.838 Y121.601 E8.86501
G1 X167.43 Y122.146 E8.89897
G1 X167.101 Y122.503 E8.92319
G1 X166.984 Y122.62 E8.93145
G1 X166.475 Y123.073 E8.96544
G1 X165.917 Y123.462 E8.99938
G1 X165.317 Y123.784 E9.03335
G1 X164.683 Y124.033 E9.06733
G1 X164.024 Y124.206 E9.10132
G1 X163.35 Y124.3 E9.13527
G1 X162.883 Y124.319 E9.15859
G1 X100 Y124.319 E12.29584
G1 X37.117 Y124.32 E15.43308
G1 X36.437 Y124.28 E15.46707
G1 X35.767 Y124.161 E15.50102
G1 X35.115 Y123.964 E15.535
G1 X34.491 Y123.692 E15.56896
G1 X33.903 Y123.348 E15.60295
G1 X33.359 Y122.938 E15.63693
G1 X33.016 Y122.621 E15.66023
G1 X32.899 Y122.504 E15.66849
G1 X32.446 Y121.995 E15.70248
G1 X32.057 Y121.437 E15.73642
G1 X31.735 Y120.837 E15.77039
G1 X31.486 Y120.203 E15.80437
G1 X31.313 Y119.544 E15.83836
G1 X31.219 Y118.87 E15.87232
G1 X31.2 Y118.403 E15.89563
G1 X31.2 Y81.598 E17.73184
G1 X31.24 Y80.918 E17.76583
G1 X31.359 Y80.248 E17.79978
G1 X31.556 Y79.596 E17.83376
G1 X31.828 Y78.972 E17.86772
G1 X32.172 Y78.384 E17.9017
G1 X32.582 Y77.84 E17.93569
G1 X32.899 Y77.497 E17.95899
G1 X33.016 Y77.38 E17.96725
G1 X33.525 Y76.927 E18.00124
G1 X34.083 Y76.538 E18.03518
G1 X34.683 Y76.216 E18.06915
G0 F3410.5 X34.914 Y76.551
G1 F1080 X35.529 Y76.32 E18.10192
G1 X36.168 Y76.165 E18.13473
G1 X37.117 Y76.081 E18.18226
G1 X100 Y76.081 E21.3195
G1 X162.883 Y76.08 E24.45675
G1 X163.539 Y76.12 E24.48954
G1 X164.185 Y76.239 E24.52231
G1 X164.812 Y76.436 E24.5551
G1 X165.41 Y76.708 E24.58788
G1 X165.971 Y77.05 E24.62065
G1 X166.486 Y77.458 E24.65343
G1 X166.948 Y77.925 E24.68621
G1 X167.349 Y78.445 E24.71897
G1 X167.685 Y79.009 E24.75172
G1 X167.949 Y79.611 E24.78452
G1 X168.139 Y80.24 E24.8173
G1 X168.25 Y80.887 E24.85005
G1 X168.283 Y81.463 E24.87883
G1 X168.4 Y118.385 E26.72089
G1 X168.362 Y119.041 E26.75367
G1 X168.245 Y119.687 E26.78642
G1 X168.05 Y120.315 E26.81923
G1 X167.78 Y120.914 E26.85201
G1 X167.44 Y121.476 E26.88478
G1 X166.818 Y122.22 E26.93316
G1 X166.701 Y122.337 E26.94142
G1 X166.209 Y122.773 E26.97421
G1 X165.668 Y123.145 E27.00697
G1 X165.086 Y123.449 E27.03973
G1 X164.471 Y123.68 E27.0725
G1 X163.832 Y123.835 E27.10531
G1 X162.883 Y123.919 E27.15284
G1 X100 Y123.919 E30.29008
G1 X37.117 Y123.92 E33.42733
G1 X36.461 Y123.88 E33.46012
G1 X35.815 Y123.761 E33.49289
G1 X35.188 Y123.564 E33.52568
G1 X34.59 Y123.292 E33.55845
G1 X34.029 Y122.95 E33.59123
G1 X33.299 Y122.338 E33.63876
G1 X33.182 Y122.221 E33.64701
G1 X32.746 Y121.729 E33.67981
G1 X32.374 Y121.188 E33.71257
G1 X32.07 Y120.606 E33.74532
G1 X31.839 Y119.991 E33.7781
G1 X31.684 Y119.352 E33.8109
G1 X31.6 Y118.403 E33.85844
G1 X31.6 Y81.598 E35.69464
G1 X31.64 Y80.942 E35.72743
G1 X31.759 Y80.296 E35.7602
G1 X31.956 Y79.669 E35.79299
G1 X32.228 Y79.071 E35.82577
G1 X32.57 Y78.51 E35.85855
G1 X33.182 Y77.78 E35.90607
G1 X33.299 Y77.663 E35.91433
G1 X33.791 Y77.227 E35.94713
G1 X34.332 Y76.855 E35.97988
G1 X34.914 Y76.551 E36.01264
G0 F3410.5 X35.143 Y76.887
G1 F1080 X35.738 Y76.675 E36.04415
G1 X36.356 Y76.539 E36.07572
G1 X37.117 Y76.481 E36.1138
G1 X100 Y76.481 E39.25104
G1 X162.883 Y76.48 E42.38829
G1 X163.514 Y76.52 E42.41983
G1 X164.135 Y76.639 E42.45138
G1 X164.735 Y76.836 E42.48289
G1 X165.307 Y77.107 E42.51446
G1 X165.839 Y77.447 E42.54596
G1 X166.324 Y77.853 E42.57752
G1 X166.754 Y78.316 E42.60904
G1 X167.123 Y78.83 E42.64061
G1 X167.423 Y79.386 E42.67213
G1 X167.651 Y79.975 E42.70364
G1 X167.803 Y80.589 E42.7352
G1 X167.883 Y81.464 E42.77903
G1 X168 Y118.386 E44.62109
G1 X167.962 Y119.017 E44.65263
G1 X167.845 Y119.638 E44.68415
G1 X167.65 Y120.24 E44.71572
G1 X167.381 Y120.812 E44.74726
G1 X167.042 Y121.345 E44.77877
G1 X166.536 Y121.938 E44.81766
G1 X166.419 Y122.055 E44.82592
G1 X165.944 Y122.472 E44.85745
G1 X165.421 Y122.827 E44.88899
G1 X164.857 Y123.113 E44.92054
G1 X164.262 Y123.325 E44.95205
G1 X163.644 Y123.461 E44.98362
G1 X162.883 Y123.519 E45.0217
G1 X100 Y123.519 E48.15894
G1 X37.117 Y123.52 E51.29619
G1 X36.486 Y123.48 E51.32773
G1 X35.865 Y123.361 E51.35928
G1 X35.265 Y123.164 E51.39078
G1 X34.693 Y122.893 E51.42236
G1 X34.161 Y122.553 E51.45386
G1 X33.581 Y122.056 E51.49197
G1 X33.464 Y121.939 E51.50022
G1 X33.047 Y121.464 E51.53176
G1 X32.692 Y120.941 E51.56329
G1 X32.406 Y120.377 E51.59484
G1 X32.194 Y119.782 E51.62635
G1 X32.058 Y119.164 E51.65792
G1 X32 Y118.403 E51.696
G1 X32 Y81.598 E53.53221
G1 X32.04 Y80.967 E53.56375
G1 X32.159 Y80.346 E53.5953
G1 X32.356 Y79.746 E53.62681
G1 X32.627 Y79.174 E53.65838
G1 X32.967 Y78.642 E53.68988
G1 X33.464 Y78.062 E53.72799
G1 X33.581 Y77.945 E53.73624
G1 X34.056 Y77.528 E53.76778
G1 X34.579 Y77.173 E53.79931
G1 X35.143 Y76.887 E53.83086
G0 F3410.5 X35.369 Y77.226
G1 F1080 X35.944 Y77.033 E53.86112
G1 X36.539 Y76.917 E53.89137
G1 X37.117 Y76.881 E53.92026
G1 X100 Y76.881 E57.05751
G1 X162.883 Y76.88 E60.19475
G1 X163.488 Y76.92 E60.225
G1 X164.082 Y77.039 E60.25522
G1 X164.656 Y77.235 E60.28548
G1 X165.199 Y77.506 E60.31576
G1 X165.702 Y77.845 E60.34602
G1 X166.155 Y78.247 E60.37624
G1 X166.552 Y78.705 E60.40648
G1 X166.885 Y79.212 E60.43674
G1 X167.149 Y79.758 E60.467
G1 X167.338 Y80.334 E60.49724
G1 X167.45 Y80.93 E60.5275
G1 X167.483 Y81.465 E60.55424
G1 X167.6 Y118.387 E62.39629
G1 X167.562 Y118.993 E62.42659
G1 X167.445 Y119.587 E62.45679
G1 X167.25 Y120.162 E62.48708
G1 X166.982 Y120.705 E62.51729
G1 X166.644 Y121.209 E62.54757
G1 X166.253 Y121.655 E62.57716
G1 X166.136 Y121.772 E62.58541
G1 X165.68 Y122.171 E62.61564
G1 X165.175 Y122.507 E62.64591
G1 X164.631 Y122.774 E62.67614
G1 X164.056 Y122.967 E62.7064
G1 X163.461 Y123.083 E62.73664
G1 X162.883 Y123.119 E62.76553
G1 X100 Y123.119 E65.90278
G1 X37.117 Y123.12 E69.04003
G1 X36.512 Y123.08 E69.07028
G1 X35.918 Y122.961 E69.1005
G1 X35.344 Y122.765 E69.13076
G1 X34.801 Y122.494 E69.16104
G1 X34.298 Y122.155 E69.1913
G1 X33.864 Y121.773 E69.22014
G1 X33.747 Y121.656 E69.2284
G1 X33.348 Y121.2 E69.25863
G1 X33.012 Y120.695 E69.28889
G1 X32.745 Y120.151 E69.31912
G1 X32.552 Y119.576 E69.34938
G1 X32.436 Y118.981 E69.37963
G1 X32.4 Y118.403 E69.40852
G1 X32.4 Y81.598 E71.24473
G1 X32.44 Y80.993 E71.27498
G1 X32.559 Y80.399 E71.3052
G1 X32.755 Y79.825 E71.33546
G1 X33.026 Y79.282 E71.36574
G1 X33.365 Y78.779 E71.396
G1 X33.747 Y78.345 E71.42484
G1 X33.864 Y78.228 E71.4331
G1 X34.32 Y77.829 E71.46333
G1 X34.825 Y77.493 E71.49359
G1 X35.369 Y77.226 E71.52382
G0 F3410.5 X35.593 Y77.567
G1 F1080 X36.146 Y77.395 E71.55272
G1 X36.718 Y77.3 E71.58164
G1 X37.117 Y77.281 E71.60157
G1 X100 Y77.281 E74.73882
G1 X162.883 Y77.28 E77.87606
G1 X163.461 Y77.32 E77.90497
G1 X164.028 Y77.439 E77.93387
G1 X164.573 Y77.635 E77.96277
G1 X165.086 Y77.904 E77.99167
G1 X165.557 Y78.241 E78.02056
G1 X165.977 Y78.64 E78.04946
G1 X166.339 Y79.093 E78.07839
G1 X166.634 Y79.591 E78.10727
G1 X166.859 Y80.125 E78.13618
G1 X167.007 Y80.685 E78.16508
G1 X167.083 Y81.467 E78.20428
G1 X167.2 Y118.389 E80.04633
G1 X167.162 Y118.967 E80.07523
G1 X167.045 Y119.534 E80.10411
G1 X166.85 Y120.08 E80.13304
G1 X166.583 Y120.594 E80.16194
G1 X166.247 Y121.066 E80.19084
G1 X165.97 Y121.372 E80.21143
G1 X165.853 Y121.489 E80.21969
G1 X165.416 Y121.869 E80.24858
G1 X164.931 Y122.186 E80.27749
G1 X164.407 Y122.433 E80.30639
G1 X163.854 Y122.605 E80.33528
G1 X163.282 Y122.7 E80.36421
G1 X162.883 Y122.719 E80.38414
G1 X100 Y122.719 E83.52138
G1 X37.117 Y122.72 E86.65863
G1 X36.539 Y122.68 E86.68754
G1 X35.972 Y122.561 E86.71644
G1 X35.427 Y122.365 E86.74533
G1 X34.914 Y122.096 E86.77423
G1 X34.443 Y121.759 E86.80313
G1 X34.147 Y121.49 E86.82308
G1 X34.03 Y121.373 E86.83134
G1 X33.65 Y120.936 E86.86023
G1 X33.333 Y120.451 E86.88914
G1 X33.086 Y119.927 E86.91804
G1 X32.914 Y119.374 E86.94693
G1 X32.819 Y118.802 E86.97586
G1 X32.8 Y118.403 E86.99579
G1 X32.8 Y81.598 E88.832
G1 X32.84 Y81.02 E88.8609
G1 X32.959 Y80.453 E88.8898
G1 X33.155 Y79.908 E88.9187
G1 X33.424 Y79.395 E88.9476
G1 X33.761 Y78.924 E88.97649
G1 X34.03 Y78.628 E88.99645
G1 X34.147 Y78.511 E89.0047
G1 X34.584 Y78.131 E89.03359
G1 X35.069 Y77.814 E89.0625
G1 X35.593 Y77.567 E89.0914
G0 F3410.5 X35.311 Y78.137
G1 F1080 X35.814 Y77.911 E89.11891
G1 X36.344 Y77.76 E89.14641
G1 X37.117 Y77.681 E89.18517
G1 X100 Y77.681 E92.32242
G1 X162.883 Y77.68 E95.45966
G1 X163.433 Y77.72 E95.48718
G1 X163.971 Y77.839 E95.51467
G1 X164.486 Y78.035 E95.54216
G1 X164.967 Y78.303 E95.56963
G1 X165.405 Y78.637 E95.59711
G1 X165.789 Y79.032 E95.62459
G1 X166.113 Y79.478 E95.6521
G1 X166.368 Y79.966 E95.67957
G1 X166.551 Y80.486 E95.70707
G1 X166.656 Y81.027 E95.73456
G1 X166.683 Y81.468 E95.7566
G1 X166.8 Y118.39 E97.59866
G1 X166.762 Y118.94 E97.62617
G1 X166.644 Y119.478 E97.65364
G1 X166.451 Y119.994 E97.68113
G1 X166.184 Y120.476 E97.70862
G1 X165.687 Y121.089 E97.74799
G1 X165.57 Y121.206 E97.75625
G1 X165.153 Y121.566 E97.78373
G1 X164.689 Y121.863 E97.81122
G1 X164.186 Y122.089 E97.83873
G1 X163.656 Y122.24 E97.86622
G1 X162.883 Y122.319 E97.90499
G1 X100 Y122.319 E101.04223
G1 X37.117 Y122.32 E104.17948
G1 X36.567 Y122.28 E104.20699
G1 X36.029 Y122.161 E104.23448
G1 X35.514 Y121.965 E104.26197
G1 X35.033 Y121.697 E104.28944
G1 X34.43 Y121.207 E104.32821
G1 X34.313 Y121.09 E104.33646
G1 X33.953 Y120.673 E104.36395
G1 X33.656 Y120.209 E104.39143
G1 X33.43 Y119.706 E104.41894
G1 X33.279 Y119.176 E104.44644
G1 X33.2 Y118.403 E104.4852
G1 X33.2 Y81.598 E106.32141
G1 X33.24 Y81.048 E106.34892
G1 X33.359 Y80.51 E106.37641
G1 X33.555 Y79.995 E106.4039
G1 X33.823 Y79.514 E106.43137
G1 X34.313 Y78.911 E106.47014
G1 X34.43 Y78.794 E106.47839
G1 X34.847 Y78.434 E106.50588
G1 X35.311 Y78.137 E106.53336
G0 F3410.5 X35.551 Y78.463
G1 F1080 X36.031 Y78.259 E106.55938
G1 X36.536 Y78.131 E106.58537
G1 X37.117 Y78.081 E106.61447
G1 X100 Y78.081 E109.75171
G1 X162.883 Y78.08 E112.88896
G1 X163.403 Y78.12 E112.91498
G1 X163.91 Y78.239 E112.94096
G1 X164.393 Y78.434 E112.96695
G1 X164.841 Y78.7 E112.99294
G1 X165.243 Y79.032 E113.01895
G1 X165.589 Y79.422 E113.04496
G1 X165.872 Y79.86 E113.07098
G1 X166.085 Y80.335 E113.09695
G1 X166.222 Y80.838 E113.12296
G1 X166.283 Y81.469 E113.15459
G1 X166.4 Y118.391 E114.99664
G1 X166.362 Y118.911 E115.02265
G1 X166.244 Y119.419 E115.04867
G1 X166.051 Y119.903 E115.07467
G1 X165.786 Y120.351 E115.10064
G1 X165.404 Y120.806 E115.13028
G1 X165.287 Y120.923 E115.13853
G1 X164.891 Y121.262 E115.16454
G1 X164.449 Y121.537 E115.19051
G1 X163.969 Y121.741 E115.21653
G1 X163.464 Y121.869 E115.24252
G1 X162.883 Y121.919 E115.27162
G1 X100 Y121.919 E118.40886
G1 X37.117 Y121.92 E121.54611
G1 X36.597 Y121.88 E121.57213
G1 X36.09 Y121.761 E121.59811
G1 X35.607 Y121.566 E121.62409
G1 X35.159 Y121.3 E121.65009
G1 X34.713 Y120.924 E121.67919
G1 X34.596 Y120.807 E121.68745
G1 X34.257 Y120.411 E121.71345
G1 X33.982 Y119.969 E121.73942
G1 X33.778 Y119.489 E121.76544
G1 X33.65 Y118.984 E121.79144
G1 X33.6 Y118.403 E121.82053
G1 X33.6 Y81.598 E123.65674
G1 X33.64 Y81.078 E123.68276
G1 X33.759 Y80.571 E123.70874
G1 X33.954 Y80.088 E123.73473
G1 X34.22 Y79.64 E123.76072
G1 X34.596 Y79.194 E123.78982
G1 X34.713 Y79.077 E123.79808
G1 X35.109 Y78.738 E123.82409
G1 X35.551 Y78.463 E123.85006
G0 F3410.5 X35.789 Y78.791
G1 F1080 X36.244 Y78.611 E123.87447
G1 X36.722 Y78.507 E123.89887
G1 X37.117 Y78.481 E123.91862
G1 X100 Y78.481 E127.05587
G1 X162.883 Y78.48 E130.19311
G1 X163.371 Y78.52 E130.21754
G1 X163.846 Y78.639 E130.24197
G1 X164.295 Y78.833 E130.26637
G1 X164.707 Y79.098 E130.29081
G1 X165.07 Y79.426 E130.31522
G1 X165.375 Y79.809 E130.33965
G1 X165.613 Y80.237 E130.36408
G1 X165.779 Y80.697 E130.38848
G1 X165.868 Y81.178 E130.41288
G1 X165.883 Y81.47 E130.42747
G1 X166 Y118.392 E132.26953
G1 X165.962 Y118.88 E132.29395
G1 X165.844 Y119.356 E132.31841
G1 X165.651 Y119.806 E132.34284
G1 X165.388 Y120.218 E132.36723
G1 X165.121 Y120.523 E132.38745
G1 X165.004 Y120.64 E132.39571
G1 X164.631 Y120.957 E132.42013
G1 X164.211 Y121.209 E132.44456
G1 X163.756 Y121.389 E132.46897
G1 X163.278 Y121.493 E132.49338
G1 X162.883 Y121.519 E132.51313
G1 X100 Y121.519 E135.65038
G1 X37.117 Y121.52 E138.78762
G1 X36.629 Y121.48 E138.81205
G1 X36.154 Y121.361 E138.83648
G1 X35.705 Y121.167 E138.86088
G1 X35.293 Y120.902 E138.88532
G1 X34.996 Y120.641 E138.90505
G1 X34.879 Y120.524 E138.9133
G1 X34.562 Y120.151 E138.93772
G1 X34.31 Y119.731 E138.96216
G1 X34.13 Y119.276 E138.98657
G1 X34.026 Y118.798 E139.01098
G1 X34 Y118.403 E139.03073
G1 X34 Y81.598 E140.86693
G1 X34.04 Y81.11 E140.89136
G1 X34.159 Y80.635 E140.91579
G1 X34.353 Y80.186 E140.9402
G1 X34.618 Y79.774 E140.96463
G1 X34.879 Y79.477 E140.98436
G1 X34.996 Y79.36 E140.99262
G1 X35.369 Y79.043 E141.01704
G1 X35.789 Y78.791 E141.04147
G0 F3410.5 X36.023 Y79.123
G1 F1080 X36.451 Y78.968 E141.06418
G1 X37.117 Y78.881 E141.09769
G1 X100 Y78.881 E144.23494
G1 X162.883 Y78.88 E147.37218
G1 X163.337 Y78.92 E147.39492
G1 X163.777 Y79.038 E147.41765
G1 X164.189 Y79.232 E147.44037
G1 X164.562 Y79.495 E147.46314
G1 X164.883 Y79.818 E147.48586
G1 X165.142 Y80.193 E147.5086
G1 X165.332 Y80.607 E147.53132
G1 X165.447 Y81.048 E147.55406
G1 X165.483 Y81.472 E147.57529
G1 X165.6 Y118.394 E149.41734
G1 X165.562 Y118.848 E149.44007
G1 X165.444 Y119.288 E149.4628
G1 X165.252 Y119.701 E149.48552
G1 X164.838 Y120.24 E149.51943
G1 X164.721 Y120.357 E149.52768
G1 X164.372 Y120.65 E149.55042
G1 X163.977 Y120.877 E149.57315
G1 X163.549 Y121.032 E149.59586
G1 X162.883 Y121.119 E149.62937
G1 X100 Y121.119 E152.76661
G1 X37.117 Y121.12 E155.90386
G1 X36.663 Y121.08 E155.9266
G1 X36.223 Y120.962 E155.94932
G1 X35.811 Y120.768 E155.97204
G1 X35.279 Y120.358 E156.00555
G1 X35.162 Y120.241 E156.01381
G1 X34.869 Y119.892 E156.03654
G1 X34.642 Y119.497 E156.05927
G1 X34.487 Y119.069 E156.08198
G1 X34.4 Y118.403 E156.11549
G1 X34.4 Y81.598 E157.9517
G1 X34.44 Y81.144 E157.97444
G1 X34.558 Y80.704 E157.99716
G1 X34.752 Y80.292 E158.01988
G1 X35.162 Y79.76 E158.05339
G1 X35.279 Y79.643 E158.06165
G1 X35.628 Y79.35 E158.08438
G1 X36.023 Y79.123 E158.10711
G0 F3410.5 X36.252 Y79.458
G1 F1080 X36.652 Y79.331 E158.12805
G1 X37.117 Y79.281 E158.15138
G1 X100 Y79.281 E161.28863
G1 X162.883 Y79.28 E164.42587
G1 X163.3 Y79.32 E164.44677
G1 X163.702 Y79.438 E164.46767
G1 X164.074 Y79.631 E164.48858
G1 X164.403 Y79.89 E164.50947
G1 X164.677 Y80.207 E164.53038
G1 X164.886 Y80.57 E164.55127
G1 X165.022 Y80.967 E164.57221
G1 X165.083 Y81.473 E164.59764
G1 X165.2 Y118.395 E166.43969
G1 X165.161 Y118.812 E166.46059
G1 X165.044 Y119.215 E166.48152
G1 X164.853 Y119.588 E166.50243
G1 X164.556 Y119.958 E166.5261
G1 X164.439 Y120.075 E166.53436
G1 X164.115 Y120.341 E166.55527
G1 X163.748 Y120.542 E166.57615
G1 X163.348 Y120.669 E166.59708
