;FLAVOR:Marlin
;TIME:5555
;Filament used: 4.17641m
;Layer height: 0.2
;MINX:68.771
;MINY:60.325
;MINZ:0.3
;MAXX:131.229
;MAXY:139.675
;MAXZ:7.9
;Generated with Cura_SteamEngine 4.2.1
M140 S70
M105
M190 S70
M104 S210
M105
M109 S210
M82 ;absolute extrusion mode
G21 ;metric values
G90 ;absolute positioning
M82 ;set extruder to absolute mode
M107 ;start with the fan off
G28 X0 Y0 ;move X/Y to min endstops
G28 Z0 ;move Z to min endstops
G1 Z15.0 F225 ;move the platform down 15mm
G92 E0 ;zero the extruded length
G1 F140 E30 ;extrude 3mm of feed stock
G1 X20 Y0 F140 E30
G92 E0 ;zero the extruded length again
G1 F225
M117 ;Printing...
M141 S28
G92 E0
G92 E0
G1 F1500 E-6.5
;LAYER_COUNT:39
;LAYER:0
M107 P1
G0 F3410.5 X70.153 Y62.367 Z0.3
;TYPE:SKIRT
G1 F1500 E0
G1 F1080 X70.624 Y61.876 E0.03394
G1 X71.149 Y61.442 E0.06793
G1 X71.721 Y61.073 E0.10189
G1 X72.333 Y60.774 E0.13587
G1 X72.975 Y60.549 E0.16981
G1 X73.64 Y60.4 E0.20381
G1 X74.571 Y60.325 E0.25041
G1 X125.429 Y60.325 E2.78772
G1 X126.109 Y60.365 E2.82171
G1 X126.779 Y60.484 E2.85566
G1 X127.431 Y60.681 E2.88964
G1 X128.055 Y60.953 E2.9236
G1 X128.643 Y61.297 E2.95758
G1 X129.187 Y61.707 E2.99157
G1 X129.678 Y62.178 E3.02551
G1 X130.112 Y62.703 E3.0595
G1 X130.481 Y63.275 E3.09346
G1 X130.78 Y63.887 E3.12744
G1 X131.005 Y64.529 E3.16138
G1 X131.154 Y65.194 E3.19538
G1 X131.229 Y66.125 E3.24198
G1 X131.229 Y133.875 E6.62204
G1 X131.189 Y134.555 E6.65602
G1 X131.07 Y135.225 E6.68997
G1 X130.873 Y135.877 E6.72395
G1 X130.601 Y136.501 E6.75791
G1 X130.257 Y137.089 E6.7919
G1 X129.847 Y137.633 E6.82589
G1 X129.376 Y138.124 E6.85983
G1 X128.851 Y138.558 E6.89381
G1 X128.279 Y138.927 E6.92777
G1 X127.667 Y139.226 E6.96176
G1 X127.025 Y139.451 E6.99569
G1 X126.36 Y139.6 E7.02969
G1 X125.429 Y139.675 E7.07629
G1 X74.571 Y139.675 E9.61361
G1 X73.891 Y139.635 E9.64759
G1 X73.221 Y139.516 E9.68154
G1 X72.569 Y139.319 E9.71552
G1 X71.945 Y139.047 E9.74948
G1 X71.357 Y138.703 E9.78347
G1 X70.813 Y138.293 E9.81746
G1 X70.322 Y137.822 E9.8514
G1 X69.888 Y137.297 E9.88538
G1 X69.519 Y136.725 E9.91934
G1 X69.22 Y136.113 E9.95333
G1 X68.995 Y135.471 E9.98727
G1 X68.846 Y134.806 E10.02126
G1 X68.771 Y133.875 E10.06786
G1 X68.771 Y66.125 E13.44792
G1 X68.811 Y65.445 E13.48191
G1 X68.93 Y64.775 E13.51586
G1 X69.127 Y64.123 E13.54984
G1 X69.399 Y63.499 E13.5838
G1 X69.743 Y62.911 E13.61779
G1 X70.153 Y62.367 E13.65177
G0 F3410.5 X70.549 Y62.522
G1 F1080 X71.016 Y62.06 E13.68454
G1 X71.536 Y61.659 E13.71731
G1 X72.1 Y61.323 E13.75006
G1 X72.702 Y61.059 E13.78285
G1 X73.331 Y60.869 E13.81563
G1 X73.978 Y60.758 E13.84839
G1 X74.571 Y60.725 E13.87802
G1 X125.429 Y60.725 E16.41533
G1 X126.085 Y60.765 E16.44812
G1 X126.731 Y60.884 E16.48089
G1 X127.358 Y61.081 E16.51368
G1 X127.956 Y61.353 E16.54646
G1 X128.517 Y61.695 E16.57924
G1 X129.032 Y62.103 E16.61202
G1 X129.494 Y62.57 E16.64479
G1 X129.895 Y63.09 E16.67755
G1 X130.231 Y63.654 E16.7103
G1 X130.495 Y64.256 E16.7431
G1 X130.685 Y64.885 E16.77588
G1 X130.796 Y65.532 E16.80863
G1 X130.829 Y66.125 E16.83826
G1 X130.829 Y133.875 E20.21832
G1 X130.789 Y134.531 E20.25111
G1 X130.67 Y135.177 E20.28388
G1 X130.473 Y135.804 E20.31667
G1 X130.201 Y136.402 E20.34945
G1 X129.859 Y136.963 E20.38222
G1 X129.451 Y137.478 E20.415
G1 X128.984 Y137.94 E20.44778
G1 X128.464 Y138.341 E20.48054
G1 X127.9 Y138.677 E20.51329
G1 X127.298 Y138.941 E20.54609
G1 X126.669 Y139.131 E20.57887
G1 X126.022 Y139.242 E20.61162
G1 X125.429 Y139.275 E20.64125
G1 X74.571 Y139.275 E23.17856
G1 X73.915 Y139.235 E23.21135
G1 X73.269 Y139.116 E23.24412
G1 X72.642 Y138.919 E23.27691
G1 X72.044 Y138.647 E23.30969
G1 X71.483 Y138.305 E23.34247
G1 X70.968 Y137.897 E23.37525
G1 X70.506 Y137.43 E23.40802
G1 X70.105 Y136.91 E23.44078
G1 X69.769 Y136.346 E23.47354
G1 X69.505 Y135.744 E23.50633
G1 X69.315 Y135.115 E23.53911
G1 X69.204 Y134.468 E23.57186
G1 X69.171 Y133.875 E23.60149
G1 X69.171 Y66.125 E26.98155
G1 X69.211 Y65.469 E27.01434
G1 X69.33 Y64.823 E27.04711
G1 X69.527 Y64.196 E27.0799
G1 X69.799 Y63.598 E27.11268
G1 X70.141 Y63.037 E27.14546
G1 X70.549 Y62.522 E27.17824
G0 F3410.5 X70.944 Y62.684
G1 F1080 X71.407 Y62.254 E27.20976
G1 X71.921 Y61.885 E27.24133
G1 X72.477 Y61.585 E27.27285
G1 X73.066 Y61.357 E27.30436
G1 X73.68 Y61.205 E27.33592
G1 X74.571 Y61.125 E27.38055
G1 X125.429 Y61.125 E29.91786
G1 X126.06 Y61.165 E29.94941
G1 X126.681 Y61.284 E29.98095
G1 X127.281 Y61.481 E30.01246
G1 X127.853 Y61.752 E30.04404
G1 X128.385 Y62.092 E30.07554
G1 X128.87 Y62.498 E30.10709
G1 X129.3 Y62.961 E30.13862
G1 X129.669 Y63.475 E30.17018
G1 X129.969 Y64.031 E30.2017
G1 X130.197 Y64.62 E30.23321
G1 X130.349 Y65.234 E30.26477
G1 X130.429 Y66.125 E30.3094
G1 X130.429 Y133.875 E33.68946
G1 X130.389 Y134.506 E33.72101
G1 X130.27 Y135.127 E33.75255
G1 X130.073 Y135.727 E33.78406
G1 X129.802 Y136.299 E33.81564
G1 X129.462 Y136.831 E33.84713
G1 X129.056 Y137.316 E33.87869
G1 X128.593 Y137.746 E33.91021
G1 X128.079 Y138.115 E33.94178
G1 X127.523 Y138.415 E33.9733
G1 X126.934 Y138.643 E34.00481
G1 X126.32 Y138.795 E34.03637
G1 X125.429 Y138.875 E34.081
G1 X74.571 Y138.875 E36.61832
G1 X73.94 Y138.835 E36.64986
G1 X73.319 Y138.716 E36.68141
G1 X72.719 Y138.519 E36.71291
G1 X72.147 Y138.248 E36.74449
G1 X71.615 Y137.908 E36.77599
G1 X71.13 Y137.502 E36.80754
G1 X70.7 Y137.039 E36.83907
G1 X70.331 Y136.525 E36.87064
G1 X70.031 Y135.969 E36.90216
G1 X69.803 Y135.38 E36.93367
G1 X69.651 Y134.766 E36.96522
G1 X69.571 Y133.875 E37.00985
G1 X69.571 Y66.125 E40.38991
G1 X69.611 Y65.494 E40.42146
G1 X69.73 Y64.873 E40.453
G1 X69.927 Y64.273 E40.48451
G1 X70.198 Y63.701 E40.51609
G1 X70.538 Y63.169 E40.54759
G1 X70.944 Y62.684 E40.57914
G0 F3410.5 X70.936 Y63.306
G1 F1080 X71.338 Y62.853 E40.60936
G1 X71.796 Y62.456 E40.6396
G1 X72.303 Y62.123 E40.66986
G1 X72.849 Y61.859 E40.70012
G1 X73.425 Y61.67 E40.73036
G1 X74.021 Y61.558 E40.76062
G1 X74.571 Y61.525 E40.78811
G1 X125.429 Y61.525 E43.32542
G1 X126.034 Y61.565 E43.35567
G1 X126.628 Y61.684 E43.3859
G1 X127.202 Y61.88 E43.41616
G1 X127.745 Y62.151 E43.44643
G1 X128.248 Y62.49 E43.47669
G1 X128.701 Y62.892 E43.50691
G1 X129.098 Y63.35 E43.53715
G1 X129.431 Y63.857 E43.56741
G1 X129.695 Y64.403 E43.59767
G1 X129.884 Y64.979 E43.62791
G1 X129.996 Y65.575 E43.65817
G1 X130.029 Y66.125 E43.68566
G1 X130.029 Y133.875 E47.06572
G1 X129.989 Y134.48 E47.09597
G1 X129.87 Y135.074 E47.12619
G1 X129.674 Y135.648 E47.15645
G1 X129.403 Y136.191 E47.18673
G1 X129.064 Y136.694 E47.21699
G1 X128.662 Y137.147 E47.24721
G1 X128.204 Y137.544 E47.27745
G1 X127.697 Y137.877 E47.30771
G1 X127.151 Y138.141 E47.33797
G1 X126.575 Y138.33 E47.36821
G1 X125.979 Y138.442 E47.39846
G1 X125.429 Y138.475 E47.42595
G1 X74.571 Y138.475 E49.96327
G1 X73.966 Y138.435 E49.99352
G1 X73.372 Y138.316 E50.02374
G1 X72.798 Y138.12 E50.054
G1 X72.255 Y137.849 E50.08428
G1 X71.752 Y137.51 E50.11454
G1 X71.299 Y137.108 E50.14476
G1 X70.902 Y136.65 E50.175
G1 X70.569 Y136.143 E50.20526
G1 X70.305 Y135.597 E50.23552
G1 X70.116 Y135.021 E50.26576
G1 X70.004 Y134.425 E50.29602
G1 X69.971 Y133.875 E50.3235
G1 X69.971 Y66.125 E53.70357
G1 X70.011 Y65.52 E53.73382
G1 X70.13 Y64.926 E53.76404
G1 X70.326 Y64.352 E53.7943
G1 X70.597 Y63.809 E53.82458
G1 X70.936 Y63.306 E53.85484
G0 F3410.5 X71.332 Y63.451
G1 F1080 X71.731 Y63.031 E53.88374
G1 X72.184 Y62.669 E53.91267
G1 X72.682 Y62.374 E53.94155
G1 X73.216 Y62.149 E53.97046
G1 X73.776 Y62.001 E53.99936
G1 X74.571 Y61.925 E54.0392
G1 X125.429 Y61.925 E56.57651
G1 X126.007 Y61.965 E56.60542
G1 X126.574 Y62.084 E56.63432
G1 X127.119 Y62.28 E56.66322
G1 X127.632 Y62.549 E56.69212
G1 X128.103 Y62.886 E56.72101
G1 X128.523 Y63.285 E56.74991
G1 X128.885 Y63.738 E56.77884
G1 X129.18 Y64.236 E56.80772
G1 X129.405 Y64.77 E56.83663
G1 X129.553 Y65.33 E56.86553
G1 X129.629 Y66.125 E56.90537
G1 X129.629 Y133.875 E60.28543
G1 X129.589 Y134.453 E60.31434
G1 X129.47 Y135.02 E60.34324
G1 X129.274 Y135.565 E60.37214
G1 X129.005 Y136.078 E60.40104
G1 X128.668 Y136.549 E60.42993
G1 X128.269 Y136.969 E60.45883
G1 X127.816 Y137.331 E60.48776
G1 X127.318 Y137.626 E60.51664
G1 X126.784 Y137.851 E60.54555
G1 X126.224 Y137.999 E60.57445
G1 X125.429 Y138.075 E60.61429
G1 X74.571 Y138.075 E63.15161
G1 X73.993 Y138.035 E63.18051
G1 X73.426 Y137.916 E63.20942
G1 X72.881 Y137.72 E63.23831
G1 X72.368 Y137.451 E63.26721
G1 X71.897 Y137.114 E63.2961
G1 X71.477 Y136.715 E63.32501
G1 X71.115 Y136.262 E63.35394
G1 X70.82 Y135.764 E63.38281
G1 X70.595 Y135.23 E63.41172
G1 X70.447 Y134.67 E63.44062
G1 X70.371 Y133.875 E63.48046
G1 X70.371 Y66.125 E66.86053
G1 X70.411 Y65.547 E66.88943
G1 X70.53 Y64.98 E66.91833
G1 X70.726 Y64.435 E66.94723
G1 X70.995 Y63.922 E66.97613
G1 X71.332 Y63.451 E67.00502
G0 F3410.5 X71.728 Y63.603
G1 F1080 X72.123 Y63.219 E67.03251
G1 X72.569 Y62.895 E67.06001
G1 X73.057 Y62.64 E67.08748
G1 X73.577 Y62.457 E67.11498
G1 X74.118 Y62.352 E67.14248
G1 X74.571 Y62.325 E67.16512
G1 X125.429 Y62.325 E69.70243
G1 X125.979 Y62.365 E69.72994
G1 X126.517 Y62.484 E69.75743
G1 X127.032 Y62.68 E69.78493
G1 X127.513 Y62.948 E69.8124
G1 X127.951 Y63.282 E69.83988
G1 X128.335 Y63.677 E69.86736
G1 X128.659 Y64.123 E69.89486
G1 X128.914 Y64.611 E69.92233
G1 X129.097 Y65.131 E69.94984
G1 X129.202 Y65.672 E69.97733
G1 X129.229 Y66.125 E69.99997
G1 X129.229 Y133.875 E73.38003
G1 X129.189 Y134.425 E73.40754
G1 X129.07 Y134.963 E73.43503
G1 X128.874 Y135.478 E73.46252
G1 X128.606 Y135.959 E73.49
G1 X128.272 Y136.397 E73.51748
G1 X127.877 Y136.781 E73.54496
G1 X127.431 Y137.105 E73.57246
G1 X126.943 Y137.36 E73.59993
G1 X126.423 Y137.543 E73.62743
G1 X125.882 Y137.648 E73.65493
G1 X125.429 Y137.675 E73.67757
G1 X74.571 Y137.675 E76.21489
G1 X74.021 Y137.635 E76.2424
G1 X73.483 Y137.516 E76.26989
G1 X72.968 Y137.32 E76.29738
G1 X72.487 Y137.052 E76.32485
G1 X72.049 Y136.718 E76.35233
G1 X71.665 Y136.323 E76.37981
G1 X71.341 Y135.877 E76.40732
G1 X71.086 Y135.389 E76.43479
G1 X70.903 Y134.869 E76.46229
G1 X70.798 Y134.328 E76.48978
G1 X70.771 Y133.875 E76.51242
G1 X70.771 Y66.125 E79.89248
G1 X70.811 Y65.575 E79.92
G1 X70.93 Y65.037 E79.94749
G1 X71.126 Y64.522 E79.97498
G1 X71.394 Y64.041 E80.00245
G1 X71.728 Y63.603 E80.02993
G0 F3410.5 X72.123 Y63.765
G1 F1080 X72.513 Y63.419 E80.05594
G1 X72.951 Y63.136 E80.08196
G1 X73.426 Y62.923 E80.10793
G1 X73.929 Y62.786 E80.13394
G1 X74.571 Y62.725 E80.16611
G1 X125.429 Y62.725 E82.70343
G1 X125.949 Y62.765 E82.72945
G1 X126.456 Y62.884 E82.75543
G1 X126.939 Y63.079 E82.78141
G1 X127.387 Y63.345 E82.80741
G1 X127.789 Y63.677 E82.83342
G1 X128.135 Y64.067 E82.85943
G1 X128.418 Y64.505 E82.88545
G1 X128.631 Y64.98 E82.91142
G1 X128.768 Y65.483 E82.93743
G1 X128.829 Y66.125 E82.9696
G1 X128.829 Y133.875 E86.34966
G1 X128.789 Y134.395 E86.37568
G1 X128.67 Y134.902 E86.40166
G1 X128.475 Y135.385 E86.42765
G1 X128.209 Y135.833 E86.45364
G1 X127.877 Y136.235 E86.47965
G1 X127.487 Y136.581 E86.50566
G1 X127.049 Y136.864 E86.53168
G1 X126.574 Y137.077 E86.55765
G1 X126.071 Y137.214 E86.58366
G1 X125.429 Y137.275 E86.61584
G1 X74.571 Y137.275 E89.15315
G1 X74.051 Y137.235 E89.17917
G1 X73.544 Y137.116 E89.20515
G1 X73.061 Y136.921 E89.23114
G1 X72.613 Y136.655 E89.25713
G1 X72.211 Y136.323 E89.28314
G1 X71.865 Y135.933 E89.30915
G1 X71.582 Y135.495 E89.33517
G1 X71.369 Y135.02 E89.36114
G1 X71.232 Y134.517 E89.38715
G1 X71.171 Y133.875 E89.41933
G1 X71.171 Y66.125 E92.79939
G1 X71.211 Y65.605 E92.82541
G1 X71.33 Y65.098 E92.85139
G1 X71.525 Y64.615 E92.87737
G1 X71.791 Y64.167 E92.90337
G1 X72.123 Y63.765 E92.92938
G0 F3410.5 X72.189 Y64.301
G1 F1080 X72.517 Y63.938 E92.95379
G1 X72.9 Y63.633 E92.97821
G1 X73.328 Y63.395 E93.00265
G1 X73.788 Y63.229 E93.02704
G1 X74.269 Y63.14 E93.05145
G1 X74.571 Y63.125 E93.06653
G1 X125.429 Y63.125 E95.60385
G1 X125.917 Y63.165 E95.62828
G1 X126.392 Y63.284 E95.65271
G1 X126.841 Y63.478 E95.67711
G1 X127.253 Y63.743 E95.70155
G1 X127.616 Y64.071 E95.72596
G1 X127.921 Y64.454 E95.75039
G1 X128.159 Y64.882 E95.77482
G1 X128.325 Y65.342 E95.79922
G1 X128.414 Y65.823 E95.82362
G1 X128.429 Y66.125 E95.83871
G1 X128.429 Y133.875 E99.21877
G1 X128.389 Y134.363 E99.24319
G1 X128.27 Y134.838 E99.26763
G1 X128.076 Y135.287 E99.29203
G1 X127.811 Y135.699 E99.31647
G1 X127.483 Y136.062 E99.34088
G1 X127.1 Y136.367 E99.3653
G1 X126.672 Y136.605 E99.38973
G1 X126.212 Y136.771 E99.41413
G1 X125.731 Y136.86 E99.43854
G1 X125.429 Y136.875 E99.45362
G1 X74.571 Y136.875 E101.99094
G1 X74.083 Y136.835 E102.01537
G1 X73.608 Y136.716 E102.0398
G1 X73.159 Y136.522 E102.0642
G1 X72.747 Y136.257 E102.08864
G1 X72.384 Y135.929 E102.11305
G1 X72.079 Y135.546 E102.13747
G1 X71.841 Y135.118 E102.1619
G1 X71.675 Y134.658 E102.1863
G1 X71.586 Y134.177 E102.21071
G1 X71.571 Y133.875 E102.22579
G1 X71.571 Y66.125 E105.60585
G1 X71.611 Y65.637 E105.63028
G1 X71.73 Y65.162 E105.65471
G1 X71.924 Y64.713 E105.67911
G1 X72.189 Y64.301 E105.70355
G0 F3410.5 X72.586 Y64.446
G1 F1080 X72.909 Y64.125 E105.72627
G1 X73.284 Y63.866 E105.74901
G1 X73.698 Y63.676 E105.77174
G1 X74.139 Y63.561 E105.79447
G1 X74.571 Y63.525 E105.8161
G1 X125.429 Y63.525 E108.35342
G1 X125.883 Y63.565 E108.37615
G1 X126.323 Y63.683 E108.39888
G1 X126.735 Y63.877 E108.4216
G1 X127.108 Y64.14 E108.44437
G1 X127.429 Y64.463 E108.46709
G1 X127.688 Y64.838 E108.48983
G1 X127.878 Y65.252 E108.51255
G1 X127.993 Y65.693 E108.53529
G1 X128.029 Y66.125 E108.55692
G1 X128.029 Y133.875 E111.93698
G1 X127.989 Y134.329 E111.95972
G1 X127.871 Y134.769 E111.98244
G1 X127.677 Y135.181 E112.00516
G1 X127.414 Y135.554 E112.02793
G1 X127.091 Y135.875 E112.05065
G1 X126.716 Y136.134 E112.07339
G1 X126.302 Y136.324 E112.09612
G1 X125.861 Y136.439 E112.11885
G1 X125.429 Y136.475 E112.14048
G1 X74.571 Y136.475 E114.6778
G1 X74.117 Y136.435 E114.70053
G1 X73.677 Y136.317 E114.72326
G1 X73.265 Y136.123 E114.74598
G1 X72.892 Y135.86 E114.76875
G1 X72.571 Y135.537 E114.79147
G1 X72.312 Y135.162 E114.81421
G1 X72.122 Y134.748 E114.83693
G1 X72.007 Y134.307 E114.85967
G1 X71.971 Y133.875 E114.8813
G1 X71.971 Y66.125 E118.26136
G1 X72.011 Y65.671 E118.2841
G1 X72.129 Y65.231 E118.30682
G1 X72.323 Y64.819 E118.32954
G1 X72.586 Y64.446 E118.35231
G0 F3410.5 X72.981 Y64.605
G1 F1080 X73.298 Y64.331 E118.37322
G1 X73.661 Y64.122 E118.39412
G1 X74.058 Y63.986 E118.41505
G1 X74.571 Y63.925 E118.44083
G1 X125.429 Y63.925 E120.97814
G1 X125.846 Y63.965 E120.99904
G1 X126.248 Y64.083 E121.01994
G1 X126.62 Y64.276 E121.04085
G1 X126.949 Y64.535 E121.06174
G1 X127.223 Y64.852 E121.08265
G1 X127.432 Y65.215 E121.10354
G1 X127.568 Y65.612 E121.12448
G1 X127.629 Y66.125 E121.15025
G1 X127.629 Y133.875 E124.53031
G1 X127.589 Y134.292 E124.55121
G1 X127.471 Y134.694 E124.57212
G1 X127.278 Y135.066 E124.59302
G1 X127.019 Y135.395 E124.61391
G1 X126.702 Y135.669 E124.63482
G1 X126.339 Y135.878 E124.65572
G1 X125.942 Y136.014 E124.67665
G1 X125.429 Y136.075 E124.70243
G1 X74.571 Y136.075 E127.23974
G1 X74.154 Y136.035 E127.26064
G1 X73.752 Y135.917 E127.28154
G1 X73.38 Y135.724 E127.30245
G1 X73.051 Y135.465 E127.32334
G1 X72.777 Y135.148 E127.34425
G1 X72.568 Y134.785 E127.36514
G1 X72.432 Y134.388 E127.38608
G1 X72.371 Y133.875 E127.41185
G1 X72.371 Y66.125 E130.79192
G1 X72.411 Y65.708 E130.81281
G1 X72.529 Y65.306 E130.83372
G1 X72.722 Y64.934 E130.85463
G1 X72.981 Y64.605 E130.87551
G0 F3410.5 X73.119 Y65.061
G1 F1080 X73.374 Y64.78 E130.89445
G1 X73.683 Y64.56 E130.91337
G1 X74.03 Y64.408 E130.93227
G1 X74.571 Y64.325 E130.95958
G1 X125.429 Y64.325 E133.49689
G1 X125.806 Y64.365 E133.51581
G1 X126.166 Y64.483 E133.53471
G1 X126.493 Y64.673 E133.55358
G1 X126.774 Y64.928 E133.57251
G1 X126.994 Y65.237 E133.59143
G1 X127.146 Y65.584 E133.61033
G1 X127.229 Y66.125 E133.63764
G1 X127.229 Y133.875 E137.0177
G1 X127.189 Y134.252 E137.03661
G1 X127.071 Y134.612 E137.05551
G1 X126.881 Y134.939 E137.07438
G1 X126.626 Y135.22 E137.09331
G1 X126.317 Y135.44 E137.11224
G1 X125.97 Y135.592 E137.13114
G1 X125.429 Y135.675 E137.15844
G1 X74.571 Y135.675 E139.69576
G1 X74.194 Y135.635 E139.71467
