;FLAVOR:Marlin
;TIME:5974
;Filament used: 4.54583m
;Layer height: 0.2
;MINX:61.2
;MINY:75.68
;MINZ:0.3
;MAXX:138.8
;MAXY:124.32
;MAXZ:24.9
;Generated with Cura_SteamEngine 4.2.1
M140 S70
M105
M190 S70
M104 S210
M105
M109 S210
M82 ;absolute extrusion mode
G21 ;metric values
G90 ;absolute positioning
M82 ;set extruder to absolute mode
M107 ;start with the fan off
G28 X0 Y0 ;move X/Y to min endstops
G28 Z0 ;move Z to min endstops
G1 Z15.0 F225 ;move the platform down 15mm
G92 E0 ;zero the extruded length
G1 F140 E30 ;extrude 3mm of feed stock
G1 X20 Y0 F140 E30
G92 E0 ;zero the extruded length again
G1 F225
M117 ;Printing...
M141 S28
G92 E0
G92 E0
G1 F1500 E-6.5
;LAYER_COUNT:124
;LAYER:0
M107 P1
G0 F3410.5 X63.525 Y76.927 Z0.3
;TYPE:SKIRT
G1 F1500 E0
G1 F1080 X64.083 Y76.538 E0.03394
G1 X64.683 Y76.216 E0.06791
G1 X65.317 Y75.967 E0.10189
G1 X65.976 Y75.794 E0.13588
G1 X66.65 Y75.7 E0.16983
G1 X67.117 Y75.681 E0.19315
G1 X132.883 Y75.68 E3.47423
G1 X133.563 Y75.72 E3.50821
G1 X134.233 Y75.839 E3.54216
G1 X134.885 Y76.036 E3.57615
G1 X135.509 Y76.308 E3.61011
G1 X136.097 Y76.652 E3.64409
G1 X136.64 Y77.062 E3.67804
G1 X136.984 Y77.379 E3.70138
G1 X137.101 Y77.496 E3.70963
G1 X137.554 Y78.005 E3.74363
G1 X137.943 Y78.563 E3.77756
G1 X138.265 Y79.163 E3.81153
G1 X138.514 Y79.797 E3.84552
G1 X138.687 Y80.456 E3.87951
G1 X138.781 Y81.13 E3.91346
G1 X138.8 Y81.597 E3.93678
G1 X138.8 Y118.402 E5.77299
G1 X138.76 Y119.082 E5.80697
G1 X138.641 Y119.752 E5.84092
G1 X138.444 Y120.404 E5.8749
G1 X138.172 Y121.028 E5.90886
G1 X137.828 Y121.616 E5.94285
G1 X137.418 Y122.16 E5.97683
G1 X137.101 Y122.503 E6.00013
G1 X136.984 Y122.62 E6.00839
G1 X136.475 Y123.073 E6.04238
G1 X135.917 Y123.462 E6.07632
G1 X135.317 Y123.784 E6.11029
G1 X134.683 Y124.033 E6.14427
G1 X134.024 Y124.206 E6.17827
G1 X133.35 Y124.3 E6.21222
G1 X132.883 Y124.319 E6.23554
G1 X67.117 Y124.32 E9.51662
G1 X66.437 Y124.28 E9.5506
G1 X65.767 Y124.161 E9.58455
G1 X65.115 Y123.964 E9.61853
G1 X64.491 Y123.692 E9.65249
G1 X63.903 Y123.348 E9.68648
G1 X63.36 Y122.938 E9.72042
G1 X63.016 Y122.621 E9.74376
G1 X62.899 Y122.504 E9.75202
G1 X62.446 Y121.995 E9.78601
G1 X62.057 Y121.437 E9.81995
G1 X61.735 Y120.837 E9.85392
G1 X61.486 Y120.203 E9.8879
G1 X61.313 Y119.544 E9.92189
G1 X61.219 Y118.87 E9.95584
G1 X61.2 Y118.403 E9.97916
G1 X61.2 Y81.598 E11.81537
G1 X61.24 Y80.918 E11.84935
G1 X61.359 Y80.248 E11.8833
G1 X61.556 Y79.596 E11.91728
G1 X61.828 Y78.972 E11.95125
G1 X62.172 Y78.384 E11.98523
G1 X62.582 Y77.84 E12.01922
G1 X62.899 Y77.497 E12.04252
G1 X63.016 Y77.38 E12.05077
G1 X63.525 Y76.927 E12.08477
G0 F3410.5 X63.791 Y77.227
G1 F1080 X64.332 Y76.855 E12.11752
G1 X64.914 Y76.551 E12.15028
G1 X65.529 Y76.32 E12.18306
G1 X66.168 Y76.165 E12.21586
G1 X67.117 Y76.081 E12.26339
G1 X132.883 Y76.08 E15.54447
G1 X133.539 Y76.12 E15.57726
G1 X134.185 Y76.239 E15.61003
G1 X134.811 Y76.436 E15.64277
G1 X135.41 Y76.708 E15.67559
G1 X135.971 Y77.05 E15.70837
G1 X136.701 Y77.662 E15.7559
G1 X136.818 Y77.779 E15.76415
G1 X137.254 Y78.271 E15.79695
G1 X137.626 Y78.812 E15.82971
G1 X137.93 Y79.394 E15.86247
G1 X138.161 Y80.009 E15.89524
G1 X138.316 Y80.648 E15.92805
G1 X138.4 Y81.597 E15.97558
G1 X138.4 Y118.402 E17.81179
G1 X138.36 Y119.058 E17.84457
G1 X138.241 Y119.704 E17.87735
G1 X138.044 Y120.331 E17.91013
G1 X137.772 Y120.929 E17.94291
G1 X137.43 Y121.49 E17.97569
G1 X136.818 Y122.22 E18.02321
G1 X136.701 Y122.337 E18.03147
G1 X136.209 Y122.773 E18.06427
G1 X135.668 Y123.145 E18.09702
G1 X135.086 Y123.449 E18.12978
G1 X134.471 Y123.68 E18.16256
G1 X133.832 Y123.835 E18.19536
G1 X132.883 Y123.919 E18.24289
G1 X67.117 Y123.92 E21.52397
G1 X66.461 Y123.88 E21.55676
G1 X65.815 Y123.761 E21.58953
G1 X65.189 Y123.564 E21.62227
G1 X64.59 Y123.292 E21.65509
G1 X64.029 Y122.95 E21.68787
G1 X63.299 Y122.338 E21.7354
G1 X63.182 Y122.221 E21.74365
G1 X62.746 Y121.729 E21.77645
G1 X62.374 Y121.188 E21.80921
G1 X62.07 Y120.606 E21.84196
G1 X61.839 Y119.991 E21.87474
G1 X61.684 Y119.352 E21.90754
G1 X61.6 Y118.403 E21.95507
G1 X61.6 Y81.598 E23.79128
G1 X61.64 Y80.942 E23.82407
G1 X61.759 Y80.296 E23.85684
G1 X61.956 Y79.669 E23.88963
G1 X62.228 Y79.071 E23.92241
G1 X62.57 Y78.51 E23.95519
G1 X63.182 Y77.78 E24.00271
G1 X63.299 Y77.663 E24.01097
G1 X63.791 Y77.227 E24.04376
G0 F3410.5 X64.056 Y77.528
G1 F1080 X64.579 Y77.173 E24.0753
G1 X65.143 Y76.887 E24.10685
G1 X65.738 Y76.675 E24.13836
G1 X66.356 Y76.539 E24.16993
G1 X67.117 Y76.481 E24.20801
G1 X132.883 Y76.48 E27.48909
G1 X133.514 Y76.52 E27.52063
G1 X134.135 Y76.639 E27.55218
G1 X134.735 Y76.836 E27.58368
G1 X135.307 Y77.107 E27.61526
G1 X135.839 Y77.447 E27.64676
G1 X136.419 Y77.944 E27.68487
G1 X136.536 Y78.061 E27.69312
G1 X136.953 Y78.536 E27.72466
G1 X137.308 Y79.059 E27.75619
G1 X137.594 Y79.623 E27.78774
G1 X137.806 Y80.218 E27.81925
G1 X137.942 Y80.836 E27.85082
G1 X138 Y81.597 E27.8889
G1 X138 Y118.402 E29.72511
G1 X137.96 Y119.033 E29.75665
G1 X137.841 Y119.654 E29.7882
G1 X137.644 Y120.254 E29.81971
G1 X137.373 Y120.826 E29.85128
G1 X137.033 Y121.358 E29.88278
G1 X136.536 Y121.938 E29.92089
G1 X136.419 Y122.055 E29.92914
G1 X135.944 Y122.472 E29.96068
G1 X135.421 Y122.827 E29.99221
G1 X134.857 Y123.113 E30.02376
G1 X134.262 Y123.325 E30.05528
G1 X133.644 Y123.461 E30.08685
G1 X132.883 Y123.519 E30.12492
G1 X67.117 Y123.52 E33.406
G1 X66.486 Y123.48 E33.43754
G1 X65.865 Y123.361 E33.46909
G1 X65.265 Y123.164 E33.5006
G1 X64.693 Y122.893 E33.53217
G1 X64.161 Y122.553 E33.56367
G1 X63.581 Y122.056 E33.60178
G1 X63.464 Y121.939 E33.61004
G1 X63.047 Y121.464 E33.64157
G1 X62.692 Y120.941 E33.67311
G1 X62.406 Y120.377 E33.70465
G1 X62.194 Y119.782 E33.73617
G1 X62.058 Y119.164 E33.76774
G1 X62 Y118.403 E33.80581
G1 X62 Y81.598 E35.64202
G1 X62.04 Y80.967 E35.67357
G1 X62.159 Y80.346 E35.70511
G1 X62.356 Y79.746 E35.73662
G1 X62.627 Y79.174 E35.7682
G1 X62.967 Y78.642 E35.7997
G1 X63.464 Y78.062 E35.8378
G1 X63.581 Y77.945 E35.84606
G1 X64.056 Y77.528 E35.87759
G0 F3410.5 X64.32 Y77.829
G1 F1080 X64.825 Y77.493 E35.90785
G1 X65.369 Y77.226 E35.93809
G1 X65.944 Y77.033 E35.96835
G1 X66.539 Y76.917 E35.99859
G1 X67.117 Y76.881 E36.02748
G1 X132.883 Y76.88 E39.30856
G1 X133.488 Y76.92 E39.33881
G1 X134.082 Y77.039 E39.36903
G1 X134.656 Y77.235 E39.39929
G1 X135.199 Y77.505 E39.42955
G1 X135.701 Y77.845 E39.4598
G1 X136.136 Y78.227 E39.48868
G1 X136.253 Y78.344 E39.49693
G1 X136.652 Y78.8 E39.52716
G1 X136.988 Y79.305 E39.55743
G1 X137.255 Y79.849 E39.58766
G1 X137.448 Y80.424 E39.61792
G1 X137.564 Y81.019 E39.64816
G1 X137.6 Y81.597 E39.67705
G1 X137.6 Y118.402 E41.51326
G1 X137.56 Y119.007 E41.54351
G1 X137.441 Y119.601 E41.57374
G1 X137.245 Y120.175 E41.604
G1 X136.974 Y120.718 E41.63427
G1 X136.635 Y121.221 E41.66454
G1 X136.253 Y121.655 E41.69338
G1 X136.136 Y121.772 E41.70164
G1 X135.68 Y122.171 E41.73186
G1 X135.175 Y122.507 E41.76213
G1 X134.631 Y122.774 E41.79236
G1 X134.056 Y122.967 E41.82262
G1 X133.461 Y123.083 E41.85286
G1 X132.883 Y123.119 E41.88176
G1 X67.117 Y123.12 E45.16283
G1 X66.512 Y123.08 E45.19308
G1 X65.918 Y122.961 E45.22331
G1 X65.344 Y122.765 E45.25357
G1 X64.801 Y122.495 E45.28382
G1 X64.299 Y122.155 E45.31407
G1 X63.864 Y121.773 E45.34295
G1 X63.747 Y121.656 E45.35121
G1 X63.348 Y121.2 E45.38144
G1 X63.012 Y120.695 E45.4117
G1 X62.745 Y120.151 E45.44193
G1 X62.552 Y119.576 E45.47219
G1 X62.436 Y118.981 E45.50244
G1 X62.4 Y118.403 E45.53133
G1 X62.4 Y81.598 E47.36754
G1 X62.44 Y80.993 E47.39779
G1 X62.559 Y80.399 E47.42801
G1 X62.755 Y79.825 E47.45827
G1 X63.026 Y79.282 E47.48855
G1 X63.365 Y78.779 E47.51881
G1 X63.747 Y78.345 E47.54765
G1 X63.864 Y78.228 E47.55591
G1 X64.32 Y77.829 E47.58614
G0 F3410.5 X64.584 Y78.131
G1 F1080 X65.069 Y77.814 E47.61505
G1 X65.593 Y77.567 E47.64395
G1 X66.146 Y77.395 E47.67284
G1 X66.718 Y77.3 E47.70177
G1 X67.117 Y77.281 E47.7217
G1 X132.883 Y77.28 E51.00278
G1 X133.461 Y77.32 E51.03168
G1 X134.028 Y77.439 E51.06059
G1 X134.573 Y77.635 E51.08948
G1 X135.086 Y77.904 E51.11838
G1 X135.557 Y78.241 E51.14727
G1 X135.853 Y78.51 E51.16723
G1 X135.97 Y78.627 E51.17548
G1 X136.35 Y79.064 E51.20437
G1 X136.667 Y79.549 E51.23328
G1 X136.914 Y80.073 E51.26218
G1 X137.086 Y80.626 E51.29108
G1 X137.181 Y81.198 E51.32
G1 X137.2 Y81.597 E51.33993
G1 X137.2 Y118.402 E53.17614
G1 X137.16 Y118.98 E53.20505
G1 X137.041 Y119.547 E53.23395
G1 X136.845 Y120.092 E53.26285
G1 X136.576 Y120.605 E53.29174
G1 X136.239 Y121.076 E53.32064
G1 X135.97 Y121.372 E53.34059
G1 X135.853 Y121.489 E53.34885
G1 X135.416 Y121.869 E53.37774
G1 X134.931 Y122.186 E53.40665
G1 X134.407 Y122.433 E53.43555
G1 X133.854 Y122.605 E53.46444
G1 X133.282 Y122.7 E53.49337
G1 X132.883 Y122.719 E53.5133
G1 X67.117 Y122.72 E56.79438
G1 X66.539 Y122.68 E56.82328
G1 X65.972 Y122.561 E56.85219
G1 X65.427 Y122.365 E56.88108
G1 X64.914 Y122.096 E56.90998
G1 X64.443 Y121.759 E56.93887
G1 X64.147 Y121.49 E56.95883
G1 X64.03 Y121.373 E56.96708
G1 X63.65 Y120.936 E56.99598
G1 X63.333 Y120.451 E57.02488
G1 X63.086 Y119.927 E57.05378
G1 X62.914 Y119.374 E57.08268
G1 X62.819 Y118.802 E57.1116
G1 X62.8 Y118.403 E57.13153
G1 X62.8 Y81.598 E58.96774
G1 X62.84 Y81.02 E58.99665
G1 X62.959 Y80.453 E59.02555
G1 X63.155 Y79.908 E59.05445
G1 X63.424 Y79.395 E59.08335
G1 X63.761 Y78.924 E59.11224
G1 X64.03 Y78.628 E59.13219
G1 X64.147 Y78.511 E59.14045
G1 X64.584 Y78.131 E59.16934
G0 F3410.5 X64.847 Y78.434
G1 F1080 X65.311 Y78.137 E59.19683
G1 X65.814 Y77.911 E59.22434
G1 X66.344 Y77.76 E59.25183
G1 X67.117 Y77.681 E59.2906
G1 X132.883 Y77.68 E62.57168
G1 X133.432 Y77.72 E62.59914
G1 X133.97 Y77.839 E62.62663
G1 X134.486 Y78.034 E62.65415
G1 X134.967 Y78.302 E62.68162
G1 X135.57 Y78.793 E62.72042
G1 X135.687 Y78.91 E62.72867
G1 X136.047 Y79.327 E62.75615
G1 X136.344 Y79.791 E62.78364
G1 X136.57 Y80.294 E62.81115
G1 X136.721 Y80.824 E62.83865
G1 X136.8 Y81.597 E62.87741
G1 X136.8 Y118.402 E64.71362
G1 X136.76 Y118.952 E64.74113
G1 X136.641 Y119.49 E64.76862
G1 X136.445 Y120.005 E64.79611
G1 X136.177 Y120.486 E64.82358
G1 X135.687 Y121.089 E64.86235
G1 X135.57 Y121.206 E64.8706
G1 X135.153 Y121.566 E64.89809
G1 X134.689 Y121.863 E64.92557
G1 X134.186 Y122.089 E64.95308
G1 X133.656 Y122.24 E64.98058
G1 X132.883 Y122.319 E65.01934
G1 X67.117 Y122.32 E68.30042
G1 X66.568 Y122.28 E68.32789
G1 X66.03 Y122.161 E68.35538
G1 X65.514 Y121.966 E68.3829
G1 X65.033 Y121.698 E68.41037
G1 X64.43 Y121.207 E68.44916
G1 X64.313 Y121.09 E68.45742
G1 X63.953 Y120.673 E68.4849
G1 X63.656 Y120.209 E68.51239
G1 X63.43 Y119.706 E68.5399
G1 X63.279 Y119.176 E68.56739
G1 X63.2 Y118.403 E68.60616
G1 X63.2 Y81.598 E70.44237
G1 X63.24 Y81.048 E70.46988
G1 X63.359 Y80.51 E70.49737
G1 X63.555 Y79.995 E70.52486
G1 X63.823 Y79.514 E70.55233
G1 X64.313 Y78.911 E70.59109
G1 X64.43 Y78.794 E70.59935
G1 X64.847 Y78.434 E70.62683
G0 F3410.5 X65.109 Y78.738
G1 F1080 X65.551 Y78.463 E70.6528
G1 X66.031 Y78.259 E70.67883
G1 X66.536 Y78.131 E70.70482
G1 X67.117 Y78.081 E70.73391
G1 X132.883 Y78.08 E74.01499
G1 X133.403 Y78.12 E74.04101
G1 X133.91 Y78.239 E74.06699
G1 X134.393 Y78.434 E74.09298
G1 X134.841 Y78.7 E74.11897
G1 X135.287 Y79.076 E74.14807
G1 X135.404 Y79.193 E74.15633
G1 X135.743 Y79.589 E74.18234
G1 X136.018 Y80.031 E74.20831
G1 X136.222 Y80.511 E74.23433
G1 X136.35 Y81.016 E74.26032
G1 X136.4 Y81.597 E74.28941
G1 X136.4 Y118.402 E76.12562
G1 X136.36 Y118.922 E76.15164
G1 X136.241 Y119.429 E76.17762
G1 X136.046 Y119.912 E76.20361
G1 X135.78 Y120.36 E76.2296
G1 X135.404 Y120.806 E76.25871
G1 X135.287 Y120.923 E76.26696
G1 X134.891 Y121.262 E76.29297
G1 X134.449 Y121.537 E76.31894
G1 X133.969 Y121.741 E76.34496
G1 X133.464 Y121.869 E76.37095
G1 X132.883 Y121.919 E76.40004
G1 X67.117 Y121.92 E79.68112
G1 X66.597 Y121.88 E79.70714
G1 X66.09 Y121.761 E79.73312
G1 X65.607 Y121.566 E79.75911
G1 X65.159 Y121.3 E79.7851
G1 X64.713 Y120.924 E79.81421
G1 X64.596 Y120.807 E79.82246
G1 X64.257 Y120.411 E79.84847
G1 X63.982 Y119.969 E79.87444
G1 X63.778 Y119.489 E79.90046
G1 X63.65 Y118.984 E79.92645
G1 X63.6 Y118.403 E79.95555
G1 X63.6 Y81.598 E81.79175
G1 X63.64 Y81.078 E81.81777
G1 X63.759 Y80.571 E81.84376
G1 X63.954 Y80.088 E81.86974
G1 X64.22 Y79.64 E81.89574
G1 X64.596 Y79.194 E81.92484
G1 X64.713 Y79.077 E81.93309
G1 X65.109 Y78.738 E81.9591
G0 F3410.5 X65.369 Y79.043
G1 F1080 X65.789 Y78.791 E81.98354
G1 X66.244 Y78.611 E82.00795
G1 X66.722 Y78.507 E82.03235
G1 X67.117 Y78.481 E82.0521
G1 X132.883 Y78.48 E85.33318
G1 X133.371 Y78.52 E85.35761
G1 X133.846 Y78.639 E85.38204
G1 X134.295 Y78.833 E85.40644
G1 X134.707 Y79.098 E85.43088
G1 X135.004 Y79.359 E85.45061
G1 X135.121 Y79.476 E85.45886
G1 X135.438 Y79.849 E85.48329
G1 X135.69 Y80.269 E85.50772
G1 X135.87 Y80.724 E85.53213
G1 X135.974 Y81.202 E85.55654
G1 X136 Y81.597 E85.57629
G1 X136 Y118.402 E87.4125
G1 X135.96 Y118.89 E87.43693
G1 X135.841 Y119.365 E87.46136
G1 X135.647 Y119.814 E87.48576
G1 X135.382 Y120.226 E87.5102
G1 X135.121 Y120.523 E87.52992
G1 X135.004 Y120.64 E87.53818
G1 X134.631 Y120.957 E87.5626
G1 X134.211 Y121.209 E87.58704
G1 X133.756 Y121.389 E87.61145
G1 X133.278 Y121.493 E87.63585
G1 X132.883 Y121.519 E87.6556
G1 X67.117 Y121.52 E90.93668
G1 X66.629 Y121.48 E90.96111
G1 X66.154 Y121.361 E90.98554
G1 X65.705 Y121.167 E91.00994
G1 X65.293 Y120.902 E91.03438
G1 X64.996 Y120.641 E91.05411
G1 X64.879 Y120.524 E91.06236
G1 X64.562 Y120.151 E91.08678
G1 X64.31 Y119.731 E91.11122
G1 X64.13 Y119.276 E91.13563
G1 X64.026 Y118.798 E91.16004
G1 X64 Y118.403 E91.17979
G1 X64 Y81.598 E93.016
G1 X64.04 Y81.11 E93.04042
G1 X64.159 Y80.635 E93.06485
G1 X64.353 Y80.186 E93.08926
G1 X64.618 Y79.774 E93.1137
G1 X64.879 Y79.477 E93.13342
G1 X64.996 Y79.36 E93.14168
G1 X65.369 Y79.043 E93.1661
G0 F3410.5 X65.628 Y79.35
G1 F1080 X66.023 Y79.123 E93.18883
G1 X66.451 Y78.968 E93.21154
G1 X67.117 Y78.881 E93.24505
G1 X132.883 Y78.88 E96.52613
G1 X133.337 Y78.92 E96.54886
G1 X133.777 Y79.038 E96.57159
G1 X134.189 Y79.232 E96.59431
G1 X134.721 Y79.642 E96.62782
G1 X134.838 Y79.759 E96.63607
G1 X135.131 Y80.108 E96.65881
G1 X135.358 Y80.503 E96.68154
G1 X135.513 Y80.931 E96.70425
G1 X135.6 Y81.597 E96.73776
G1 X135.6 Y118.402 E98.57397
G1 X135.56 Y118.856 E98.5967
G1 X135.442 Y119.296 E98.61943
G1 X135.248 Y119.708 E98.64215
G1 X134.838 Y120.24 E98.67566
G1 X134.721 Y120.357 E98.68392
G1 X134.372 Y120.65 E98.70665
G1 X133.977 Y120.877 E98.72938
G1 X133.549 Y121.032 E98.75209
G1 X132.883 Y121.119 E98.7856
G1 X67.117 Y121.12 E102.06668
G1 X66.663 Y121.08 E102.08941
G1 X66.223 Y120.962 E102.11214
G1 X65.811 Y120.768 E102.13486
G1 X65.279 Y120.358 E102.16837
G1 X65.162 Y120.241 E102.17663
G1 X64.869 Y119.892 E102.19936
G1 X64.642 Y119.497 E102.22209
G1 X64.487 Y119.069 E102.2448
G1 X64.4 Y118.403 E102.27831
G1 X64.4 Y81.598 E104.11452
G1 X64.44 Y81.144 E104.13726
G1 X64.558 Y80.704 E104.15998
G1 X64.752 Y80.292 E104.1827
G1 X65.162 Y79.76 E104.21621
G1 X65.279 Y79.643 E104.22447
G1 X65.628 Y79.35 E104.2472
G0 F3410.5 X65.885 Y79.659
G1 F1080 X66.252 Y79.458 E104.26808
G1 X66.652 Y79.331 E104.28901
G1 X67.117 Y79.281 E104.31235
G1 X132.883 Y79.28 E107.59343
G1 X133.3 Y79.32 E107.61433
G1 X133.702 Y79.438 E107.63523
G1 X134.074 Y79.631 E107.65614
G1 X134.439 Y79.924 E107.67949
G1 X134.556 Y80.041 E107.68774
G1 X134.822 Y80.365 E107.70866
G1 X135.023 Y80.732 E107.72953
G1 X135.15 Y81.132 E107.75047
G1 X135.2 Y81.597 E107.7738
G1 X135.2 Y118.402 E109.61001
G1 X135.16 Y118.819 E109.63091
G1 X135.042 Y119.221 E109.65181
G1 X134.849 Y119.593 E109.67272
G1 X134.556 Y119.958 E109.69607
G1 X134.439 Y120.075 E109.70433
G1 X134.115 Y120.341 E109.72524
G1 X133.748 Y120.542 E109.74612
G1 X133.348 Y120.669 E109.76706
G1 X132.883 Y120.719 E109.79039
G1 X67.117 Y120.72 E113.07147
G1 X66.7 Y120.68 E113.09237
G1 X66.298 Y120.562 E113.11327
G1 X65.926 Y120.369 E113.13418
G1 X65.561 Y120.076 E113.15753
G1 X65.444 Y119.959 E113.16578
G1 X65.178 Y119.635 E113.1867
G1 X64.977 Y119.268 E113.20757
G1 X64.85 Y118.868 E113.22851
G1 X64.8 Y118.403 E113.25184
G1 X64.8 Y81.598 E115.08805
G1 X64.84 Y81.181 E115.10895
